images/jetpack-backup.svg

<svg viewBox="0 0 151 110" fill="none" xmlns="http://www.w3.org/2000/svg">
<path d="M21.2183 26.8407V17.1507C21.2183 15.5297 21.8636 13.975 23.0122 12.8288C24.1609 11.6825 25.7188 11.0386 27.3432 11.0386H118.019C119.643 11.0386 121.201 11.6825 122.35 12.8288C123.498 13.975 124.144 15.5297 124.144 17.1507V26.8407H21.2183Z" fill="#5198D9"/>
<path d="M124.144 98.0036V82.9097C124.146 86.9093 122.557 90.7462 119.726 93.5767C116.894 96.4073 113.052 97.9996 109.044 98.0036H21.2183" fill="#CCCED0"/>
<path d="M21.2183 26.8407H124.154V63.8282H21.2183V26.8407Z" fill="#C6DEF6"/>
<path d="M33.2605 73.553H64.5996V98.0007H33.2605V73.553Z" fill="#C6DEF6"/>
<path d="M96.2086 49.8955H33.2605V42.8406H89.8043C91.5071 42.8406 93.1402 43.5151 94.3449 44.7159C95.5496 45.9167 96.2274 47.5456 96.2294 49.2447L96.2086 49.8955Z" fill="white"/>
<path d="M74.0844 73.553H112.338V98.0007H74.0844V73.553Z" fill="#C6DEF6"/>
<path d="M30.8522 98.2626L21.3845 98.3247H21.0626V98.0036C21.0626 92.3472 20.9277 86.6909 20.8031 81.0355L20.4398 64.0769L20.251 47.1088L20.168 30.1511V17.4305C20.1357 16.6092 20.2313 15.788 20.4511 14.9959C20.7078 14.2029 21.0936 13.4574 21.593 12.7894C22.6183 11.4379 24.089 10.4913 25.7455 10.1166C26.5114 9.96952 27.2916 9.91043 28.0709 9.94047H72.6867L106.673 9.81615H117.302C118.104 9.78983 118.905 9.85939 119.69 10.0233C121.351 10.4136 122.821 11.3745 123.843 12.7376C124.37 13.4142 124.77 14.1798 125.026 14.9978C125.261 15.7925 125.373 16.6182 125.358 17.4465V30.1605L125.254 98.013V99.049H100.906C93.1311 99.049 85.3339 98.9764 77.58 98.9039L54.2543 98.4895C46.4023 98.3144 38.6268 98.3351 30.8522 98.2626ZM30.8522 97.7446C38.6268 97.6721 46.424 97.6824 54.1769 97.5063L77.5027 97.0919C85.2782 97.0298 93.0745 96.9365 100.828 96.9469H124.139L123.101 97.9829L122.997 30.1304V17.4305C123.014 16.846 122.94 16.2625 122.779 15.7004C122.598 15.1574 122.328 14.6482 121.98 14.1936C121.29 13.2772 120.297 12.6348 119.177 12.3806C118.575 12.2649 117.961 12.2231 117.35 12.2563H106.673L72.6867 12.1942H28.07C27.4439 12.1593 26.8159 12.2045 26.2014 12.3288C25.0781 12.5793 24.0771 13.2119 23.3701 14.1182C22.6481 15.0651 22.2809 16.2342 22.332 17.4229V47.1088L22.1782 64.0769L21.895 81.0355C21.8007 86.6862 21.7063 92.3472 21.7063 98.0036L21.3845 97.6721L30.8522 97.7446Z" fill="#5198D9"/>
<path d="M129.251 27.095C119.825 27.9341 110.389 27.872 100.963 27.9238L72.6763 28.0584L44.3779 27.9238C34.9518 27.872 25.5161 27.9238 16.09 27.095V26.577C25.5161 25.7379 34.9518 25.8 44.3779 25.7482L72.6763 25.6164L100.963 25.7511C110.389 25.7511 119.825 25.7511 129.251 26.5798V27.095Z" fill="#2271B1"/>
<path d="M133.683 70.8801C133.615 70.538 133.343 70.2644 133.002 70.2644C131.57 70.2644 130.139 70.1276 128.707 69.9223C127.276 69.7171 125.845 69.3751 124.481 68.8962C123.118 68.4174 121.823 67.8017 120.596 67.0492C119.369 66.2967 118.347 65.339 117.46 64.2445L117.392 64.1761C117.12 63.9708 116.711 63.9708 116.506 64.2445C115.688 65.2022 114.598 66.1599 113.575 66.9808C112.485 67.8017 111.326 68.4858 110.099 69.033C108.872 69.5803 107.577 69.9907 106.282 70.2644C104.987 70.538 103.623 70.6064 102.26 70.4696C101.987 70.4696 101.783 70.6748 101.715 70.8801C101.238 74.1636 101.101 77.3788 101.306 80.6624C101.51 83.8776 102.124 87.1611 103.283 90.1711C104.441 93.2495 106.214 96.0542 108.599 98.3116C110.985 100.569 113.916 102.074 117.052 102.895H117.12C118.824 102.827 120.46 102.348 121.959 101.664C123.459 100.98 124.958 100.09 126.185 98.9273C128.776 96.7383 130.752 93.8651 132.047 90.7184C133.411 87.5716 133.956 84.2196 134.161 80.8676C134.365 77.5156 134.161 74.1636 133.683 70.8801Z" fill="#2FB41F"/>
<path d="M126.799 77.5842C126.731 77.5158 126.594 77.4474 126.458 77.5158C125.436 78.3367 124.481 79.2944 123.595 80.1837L120.937 83.0568C119.369 84.8354 117.801 86.5456 116.233 88.3242C115.552 87.7769 114.938 87.2981 114.257 86.7508L112.962 85.7247C112.484 85.3827 112.144 84.9722 111.53 84.9038H111.258C110.985 85.0406 110.849 85.3143 110.985 85.5879C111.189 86.2036 111.667 86.4088 112.075 86.8192L113.302 87.8454C114.12 88.5294 114.938 89.2135 115.824 89.8976C116.165 90.1712 116.574 90.1028 116.847 89.8292C118.551 87.8454 120.255 85.9299 121.959 83.9461C122.777 82.92 123.663 81.9623 124.481 80.9362C125.299 79.91 126.049 78.8839 126.731 77.721C126.867 77.7894 126.799 77.6526 126.799 77.5842Z" fill="white"/>
</svg>

<svg viewBox="0 0 151 110" fill="none" xmlns="http://www.w3.org/2000/svg"><path d="M21.22 26.84v-9.69a6.1 6.1 0 016.12-6.11h90.68a6.13 6.13 0 016.12 6.11v9.7H21.22z" fill="#5198D9"/><path d="M124.14 98V82.91a15.07 15.07 0 01-15.1 15.1H21.22" fill="#CCCED0"/><path d="M21.22 26.84h102.93v36.99H21.22V26.84zM33.26 73.55H64.6V98H33.26V73.55z" fill="#C6DEF6"/><path d="M96.2 49.9H33.27v-7.06H89.8a6.43 6.43 0 016.43 6.4l-.02.66z" fill="#fff"/><path d="M74.08 73.55h38.26V98H74.08V73.55z" fill="#C6DEF6"/><path d="M30.85 98.26l-9.47.06h-.32V98c0-5.65-.13-11.3-.26-16.96l-.36-16.96-.19-16.97-.08-16.96V17.43c-.03-.82.06-1.64.28-2.43a7.2 7.2 0 015.3-4.88c.76-.15 1.54-.21 2.32-.18H72.7l33.98-.12h10.63c.8-.03 1.6.04 2.39.2a7.27 7.27 0 014.15 2.72 7.15 7.15 0 011.52 4.7v12.72l-.1 67.85v1.04H100.9c-7.78 0-15.58-.07-23.33-.15l-23.33-.41c-7.85-.18-15.62-.15-23.4-.23zm0-.52c7.78-.07 15.57-.06 23.33-.23l23.32-.42c7.78-.06 15.57-.15 23.33-.14h23.3l-1.03 1.03-.1-67.85v-12.7a5.68 5.68 0 00-.22-1.73 5.17 5.17 0 00-.8-1.5 4.85 4.85 0 00-2.8-1.82 7.52 7.52 0 00-1.83-.12h-10.68l-33.98-.07H28.07a7.36 7.36 0 00-1.87.14 4.96 4.96 0 00-3.87 5.1V47.1l-.15 16.97-.29 16.96c-.09 5.65-.18 11.3-.18 16.96l-.33-.33 9.47.07z" fill="#5198D9"/><path d="M129.25 27.1c-9.42.83-18.86.77-28.29.82l-28.28.14-28.3-.14c-9.43-.05-18.86 0-28.29-.83v-.51c9.43-.84 18.86-.78 28.29-.83l28.3-.13 28.28.13c9.43 0 18.87 0 28.3.83v.52z" fill="#2271B1"/><path d="M133.68 70.88c-.06-.34-.34-.62-.68-.62-1.43 0-2.86-.13-4.3-.34-1.42-.2-2.85-.54-4.22-1.02a20.24 20.24 0 01-3.88-1.85 12.34 12.34 0 01-3.14-2.8l-.07-.07c-.27-.2-.68-.2-.88.06-.82.96-1.91 1.92-2.94 2.74a17.84 17.84 0 01-7.29 3.28c-1.3.28-2.66.35-4.02.21a.6.6 0 00-.55.41c-.47 3.28-.6 6.5-.4 9.78.2 3.22.81 6.5 1.97 9.51a21.62 21.62 0 005.32 8.14 19.33 19.33 0 008.45 4.58h.07c1.7-.06 3.34-.54 4.84-1.23 1.5-.68 3-1.57 4.23-2.73a21.35 21.35 0 005.86-8.21c1.36-3.15 1.9-6.5 2.11-9.85.2-3.35 0-6.7-.48-9.99z" fill="#2FB41F"/><path d="M126.8 77.58c-.07-.06-.2-.13-.34-.06a35.78 35.78 0 00-2.86 2.66l-2.66 2.88c-1.57 1.78-3.14 3.49-4.7 5.26l-1.98-1.57-1.3-1.03c-.48-.34-.82-.75-1.43-.82h-.27c-.28.14-.41.41-.28.69.2.61.69.82 1.1 1.23l1.22 1.03c.82.68 1.64 1.36 2.52 2.05.35.27.75.2 1.03-.07 1.7-1.98 3.4-3.9 5.1-5.88.83-1.03 1.71-1.99 2.53-3.01a27.08 27.08 0 002.25-3.22c.14.07.07-.07.07-.14z" fill="#fff"/></svg>
